packages/kaspersky-hexa-ui-icons/src/iconsSVGs/28x20/FlagSv.svg

<svg width="28" height="20" viewBox="0 0 28 20" fill="none" xmlns="http://www.w3.org/2000/svg">
<g clip-path="url(#clip0_5138_746)">
<path d="M0 2C0 0.895431 0.895431 0 2 0H26C27.1046 0 28 0.895431 28 2V18C28 19.1046 27.1046 20 26 20H2C0.895431 20 0 19.1046 0 18V2Z" fill="white"/>
<mask id="mask0_5138_746" style="mask-type:luminance" maskUnits="userSpaceOnUse" x="0" y="0" width="28" height="20">
<rect width="28" height="20" rx="2" fill="white"/>
</mask>
<g mask="url(#mask0_5138_746)">
<path d="M26 19.5V20H2V19.5H26ZM27.5 18V2C27.5 1.17157 26.8284 0.5 26 0.5H2C1.17157 0.5 0.5 1.17157 0.5 2V18C0.5 18.8284 1.17157 19.5 2 19.5V20C0.895431 20 0 19.1046 0 18V2C2.57702e-07 0.895431 0.895431 0 2 0H26C27.1046 0 28 0.895431 28 2V18C28 19.1046 27.1046 20 26 20V19.5C26.8284 19.5 27.5 18.8284 27.5 18Z" fill="#F5F5F5"/>
<path fill-rule="evenodd" clip-rule="evenodd" d="M0 6.66667H28V0H0V6.66667Z" fill="#1B57C4"/>
<path fill-rule="evenodd" clip-rule="evenodd" d="M0 20H28V13.3333H0V20Z" fill="#1B57C4"/>
<path fill-rule="evenodd" clip-rule="evenodd" d="M12.4 7.86652C11.7523 8.35303 11.3333 9.12759 11.3333 10C11.3333 11.4728 12.5273 12.6667 14 12.6667C15.4728 12.6667 16.6667 11.4728 16.6667 10C16.6667 9.12759 16.2477 8.35303 15.6001 7.86652L14.6667 10.6667H13.3333L12.4 7.86652Z" fill="url(#paint0_linear_5138_746)"/>
<path fill-rule="evenodd" clip-rule="evenodd" d="M14 7.33334L14.6667 10.6667H13.3333L14 7.33334Z" fill="#F9C92E"/>
</g>
</g>
<defs>
<linearGradient id="paint0_linear_5138_746" x1="11.3333" y1="7.86652" x2="11.3333" y2="12.6667" gradientUnits="userSpaceOnUse">
<stop stop-color="#3C7839"/>
<stop offset="1" stop-color="#31642E"/>
</linearGradient>
<clipPath id="clip0_5138_746">
<rect width="28" height="20" fill="white"/>
</clipPath>
</defs>
</svg>

<svg xmlns="http://www.w3.org/2000/svg" width="28" height="20" fill="none" viewBox="0 0 28 20"><g clip-path="url(#a)"><path fill="#fff" d="M0 2C0 .8954.8954 0 2 0h24c1.1046 0 2 .8954 2 2v16c0 1.1046-.8954 2-2 2H2c-1.1046 0-2-.8954-2-2z"/><mask id="b" width="28" height="20" x="0" y="0" maskUnits="userSpaceOnUse" style="mask-type:luminance"><rect width="28" height="20" fill="#fff" rx="2"/></mask><g mask="url(#b)"><path fill="#f5f5f5" d="M26 19.5v.5H2v-.5zm1.5-1.5V2c0-.8284-.6716-1.5-1.5-1.5H2C1.1716.5.5 1.1716.5 2v16c0 .8284.6716 1.5 1.5 1.5v.5c-1.1046 0-2-.8954-2-2V2C0 .8954.8954 0 2 0h24c1.1046 0 2 .8954 2 2v16c0 1.1046-.8954 2-2 2v-.5c.8284 0 1.5-.6716 1.5-1.5"/><path fill="#1b57c4" fill-rule="evenodd" d="M0 6.667h28V0H0zM0 20h28v-6.667H0z" clip-rule="evenodd"/><path fill="url(#c)" fill-rule="evenodd" d="M12.4 7.8665c-.6477.4865-1.0667 1.261-1.0667 2.1335 0 1.4728 1.194 2.6667 2.6667 2.6667S16.6667 11.4728 16.6667 10c0-.8724-.419-1.647-1.0666-2.1335l-.9334 2.8002h-1.3334z" clip-rule="evenodd"/><path fill="#f9c92e" fill-rule="evenodd" d="m14 7.3333.6667 3.3334h-1.3334z" clip-rule="evenodd"/></g></g><defs><linearGradient id="c" x1="11" x2="11" y1="8" y2="13" gradientUnits="userSpaceOnUse"><stop stop-color="#3c7839"/><stop offset="1" stop-color="#31642e"/></linearGradient><clipPath id="a"><path fill="#fff" d="M0 0h28v20H0z"/></clipPath></defs></svg>
